icons/issue-tracked-in-16.svg

<svg xmlns="http://www.w3.org/2000/svg" width="16" height="16" viewBox="0 0 16 16"><path d="M1.5 8a6.5 6.5 0 0113 0A.75.75 0 0016 8a8 8 0 10-8 8 .75.75 0 000-1.5A6.5 6.5 0 011.5 8z"/><path d="M8 9.5a1.5 1.5 0 100-3 1.5 1.5 0 000 3zm3.573 5.823l-2.896-2.896a.25.25 0 010-.354l2.896-2.896a.25.25 0 01.427.177V11.5h3.25a.75.75 0 010 1.5H12v2.146a.25.25 0 01-.427.177z"/></svg>

<svg xmlns="http://www.w3.org/2000/svg" width="16" height="16" viewBox="0 0 16 16">
  <defs/>
  <path d="M1.5,8 A6.5 6.5 0 0 1 14.5,8 A0.75 0.75 0 0 0 16,8 A8 8 0 1 0 8,16 A0.75 0.75 0 0 0 8,14.5 A6.5 6.5 0 0 1 1.5,8 Z"/>
  <path d="M8,9.5 A1.5 1.5 0 1 0 8,6.5 A1.5 1.5 0 0 0 8,9.5 Z M11.573,15.323 L8.677,12.427 A0.25 0.25 0 0 1 8.677,12.073 L11.573,9.177 A0.25 0.25 0 0 1 12,9.354 L12,11.5 L15.25,11.5 A0.75 0.75 0 0 1 15.25,13 L12,13 L12,15.146 A0.25 0.25 0 0 1 11.573,15.323 Z"/>
</svg>
